src/assets/sponsors/walletconnect.svg

<svg height="238" viewBox="0 0 1459 238" width="1459" xmlns="http://www.w3.org/2000/svg"><g fill="none" fill-rule="evenodd"><path d="m526.766839 130.223822-20.0235 72.05537h-20.827364l-27.915975-105.4522303h22.873561l16.588812 76.3670003h.584628l19.731187-76.3670003h18.635009l19.731187 76.3670003h.584627l16.661891-76.3670003h22.873561l-27.989053 105.4522303h-20.827364l-20.023501-72.05537zm99.898267 57.878147c9.280966 0 16.954205-6.065513 16.954205-14.542615v-5.700121l-16.515734 1.023099c-7.965553.584628-12.496418 4.165473-12.496418 9.719436 0 5.846278 4.823179 9.500201 12.057947 9.500201zm-7.015533 15.419557c-14.908007 0-26.23517-9.646358-26.23517-23.750502 0-14.250302 10.96177-22.508169 30.473721-23.677424l19.731187-1.169256v-5.188571c0-7.307847-5.115493-11.546398-13.154124-11.546398-7.965554 0-13.007968 3.946237-14.031066 9.719436h-19.511952c.803864-15.200321 13.738753-25.650542 34.493038-25.650542 20.096579 0 33.177625 10.377142 33.177625 26.162092v53.858831h-20.608129v-11.984869h-.43847c-4.384709 8.330946-14.104145 13.227203-23.89666 13.227203zm59.19356-1.242334v-105.4522303h21.338913v105.4522303zm36.246921 0v-105.4522303h21.338912v105.4522303zm70.886114-64.235974c-9.354044 0-16.077263 7.088612-16.808047 16.881126h33.250703c-.438471-10.01175-6.942455-16.881126-16.442656-16.881126zm16.73497 40.266237h19.585029c-2.338511 15.346478-16.369577 25.650542-35.735371 25.650542-24.115895 0-38.585431-15.419557-38.585431-40.485472 0-24.992836 14.615693-41.216256 37.781568-41.216256 22.800482 0 37.196941 15.419557 37.196941 39.243138v6.503983h-54.004989v1.315413c0 11.181006 7.088612 18.854245 17.977303 18.854245 7.819397 0 13.811831-3.873159 15.78495-9.865593zm36.904627-72.420763h21.338912v18.050382h14.469537v16.077263h-14.469537v37.489254c0 5.992435 2.923139 8.842495 9.207888 8.842495 1.90004 0 3.873158-.146157 5.188571-.365392v15.711871c-2.192354.511549-5.846278.876941-10.157907.876941-18.415774 0-25.577464-6.138591-25.577464-21.411991v-41.143178h-11.034849v-16.077263h11.034849zm95.952029 98.217462c-30.692957 0-49.912594-20.53505-49.912594-54.589616 0-33.981488 19.365794-54.516538 49.912594-54.516538 25.358229 0 44.650945 16.077263 46.331749 39.681609h-21.485069c-2.046197-12.934889-11.984869-21.411992-24.84668-21.411992-16.661891 0-27.404426 13.957988-27.404426 36.173842 0 22.508169 10.596378 36.393078 27.477505 36.393078 13.081046 0 22.508168-7.673239 24.846679-20.169658h21.48507c-2.484668 23.531267-20.53505 38.439275-46.404828 38.439275zm94.125066-.146157c-23.67742 0-38.804665-15.200321-38.804665-40.923942 0-25.358229 15.346475-40.777786 38.804665-40.777786s38.80467 15.346478 38.80467 40.777786c0 25.796699-15.12724 40.923942-38.80467 40.923942zm0-16.296498c10.45022 0 17.10036-8.842495 17.10036-24.554366 0-15.565714-6.72322-24.554366-17.10036-24.554366s-17.17344 8.988652-17.17344 24.554366c0 15.711871 6.65014 24.554366 17.17344 24.554366zm49.76644 14.615693v-78.340118h20.60813v13.957987h.43847c4.16547-9.719436 12.42334-15.419557 24.48129-15.419557 17.39267 0 27.18519 10.961771 27.18519 29.304466v50.497222h-21.33892v-46.039435c0-10.230986-4.82318-16.077263-14.39646-16.077263-9.57327 0-15.63879 7.015533-15.63879 17.17344v44.943258zm86.23259 0v-78.340118h20.60813v13.957987h.43847c4.16547-9.719436 12.42334-15.419557 24.48129-15.419557 17.39267 0 27.18519 10.961771 27.18519 29.304466v50.497222h-21.33891v-46.039435c0-10.230986-4.82318-16.077263-14.39646-16.077263s-15.63879 7.015533-15.63879 17.17344v44.943258zm121.38334-64.235974c-9.35404 0-16.07726 7.088612-16.80805 16.881126h33.25071c-.43848-10.01175-6.94246-16.881126-16.44266-16.881126zm16.73497 40.266237h19.58503c-2.33851 15.346478-16.36958 25.650542-35.73537 25.650542-24.1159 0-38.58543-15.419557-38.58543-40.485472 0-24.992836 14.61569-41.216256 37.78156-41.216256 22.80049 0 37.19694 15.419557 37.19694 39.243138v6.503983h-54.00498v1.315413c0 11.181006 7.08861 18.854245 17.9773 18.854245 7.8194 0 13.81183-3.873159 15.78495-9.865593zm102.38293-25.212072h-19.80426c-1.24234-8.257867-6.72322-14.104145-15.49264-14.104145-10.5233 0-17.10036 8.915573-17.10036 24.042817 0 15.419556 6.57706 24.188973 17.17344 24.188973 8.55018 0 14.10415-5.115493 15.41956-13.665674h19.87734c-1.09617 18.488853-14.90801 30.400643-35.51613 30.400643-23.60435 0-38.58544-15.346478-38.58544-40.923942 0-25.138994 14.98109-40.777786 38.43928-40.777786 21.19276 0 34.63919 13.081046 35.58921 30.839114zm16.07727-47.208691h21.33891v18.050382h14.46954v16.077263h-14.46954v37.489254c0 5.992435 2.92314 8.842495 9.20789 8.842495 1.90004 0 3.87316-.146157 5.18857-.365392v15.711871c-2.19236.511549-5.84628.876941-10.15791.876941-18.41577 0-25.57746-6.138591-25.57746-21.411991v-41.143178h-11.03485v-16.077263h11.03485z" fill="#3999fb"/><path d="m79.4992542 46.5389641c63.2162498-61.8939784 165.7100398-61.8939784 228.9262868 0l7.608178 7.4490392c3.160812 3.0946988 3.160812 8.1121973 0 11.2068973l-26.026058 25.4816798c-1.580406 1.5473507-4.142751 1.5473507-5.723157 0l-10.469756-10.2507642c-44.101235-43.1787861-115.603465-43.1787861-159.704701 0l-11.212242 10.9777227c-1.580408 1.5473494-4.142753 1.5473494-5.7231579 0l-26.0260573-25.4816798c-3.1608124-3.0947-3.1608124-8.1121985 0-11.2068972zm282.7506308 52.6988081 23.163241 22.6788228c3.160796 3.094685 3.160815 8.112153.000041 11.206858l-104.444655 102.261626c-3.16079 3.094722-8.285479 3.094757-11.446314.00008-.000013-.000013-.000028-.000027-.000041-.000041l-74.128461-72.578053c-.790203-.773675-2.071376-.773675-2.861579 0-.000005.000005-.000009.000011-.000014.000014l-74.126883 72.578c-3.16078 3.09473-8.285471 3.094782-11.446315.000113-.000018-.000018-.000038-.000037-.000058-.000056l-104.44756025-102.262986c-3.16081116-3.094699-3.16081116-8.112197 0-11.206896l23.16328295-22.6787848c3.1608111-3.0946987 8.2855015-3.0946987 11.446314 0l74.1295403 72.5790678c.790203.773675 2.071374.773675 2.861578 0 .000012-.000012.000022-.000023.000034-.000032l74.125825-72.5790358c3.16074-3.0947699 8.28543-3.094886 11.446315-.0002585.000044.0000435.000087.000087.000131.0001306l74.129442 72.5791637c.790203.773674 2.071376.773674 2.861578 0l74.128244-72.5777328c3.160813-3.0947 8.285502-3.0947 11.446314 0z" fill="#3b99fc" fill-rule="nonzero"/></g></svg>

<?xml version="1.0" encoding="UTF-8"?>
<svg width="1459px" height="238px" viewBox="0 0 1459 238" version="1.1" xmlns="http://www.w3.org/2000/svg" xmlns:xlink="http://www.w3.org/1999/xlink">
    <!-- Generator: Sketch 49.3 (51167) - http://www.bohemiancoding.com/sketch -->
    <title>walletconnect-banner-2</title>
    <desc>Created with Sketch.</desc>
    <defs></defs>
    <g id="Page-1" stroke="none" stroke-width="1" fill="none" fill-rule="evenodd">
        <g id="walletconnect-banner-2">
            <path d="M526.766839,130.223822 L506.743339,202.279192 L485.915975,202.279192 L458,96.8269617 L480.873561,96.8269617 L497.462373,173.193962 L498.047001,173.193962 L517.778188,96.8269617 L536.413197,96.8269617 L556.144384,173.193962 L556.729011,173.193962 L573.390902,96.8269617 L596.264463,96.8269617 L568.27541,202.279192 L547.448046,202.279192 L527.424545,130.223822 L526.766839,130.223822 Z M626.665106,188.101969 C635.946072,188.101969 643.619311,182.036456 643.619311,173.559354 L643.619311,167.859233 L627.103577,168.882332 C619.138024,169.46696 614.607159,173.047805 614.607159,178.601768 C614.607159,184.448046 619.430338,188.101969 626.665106,188.101969 Z M619.649573,203.521526 C604.741566,203.521526 593.414403,193.875168 593.414403,179.771024 C593.414403,165.520722 604.376173,157.262855 623.888124,156.0936 L643.619311,154.924344 L643.619311,149.735773 C643.619311,142.427926 638.503818,138.189375 630.465187,138.189375 C622.499633,138.189375 617.457219,142.135612 616.434121,147.908811 L596.922169,147.908811 C597.726033,132.70849 610.660922,122.258269 631.415207,122.258269 C651.511786,122.258269 664.592832,132.635411 664.592832,148.420361 L664.592832,202.279192 L643.984703,202.279192 L643.984703,190.294323 L643.546233,190.294323 C639.161524,198.625269 629.442088,203.521526 619.649573,203.521526 Z M678.843133,202.279192 L678.843133,96.8269617 L700.182046,96.8269617 L700.182046,202.279192 L678.843133,202.279192 Z M715.090054,202.279192 L715.090054,96.8269617 L736.428966,96.8269617 L736.428966,202.279192 L715.090054,202.279192 Z M785.976168,138.043218 C776.622124,138.043218 769.898905,145.13183 769.168121,154.924344 L802.418824,154.924344 C801.980353,144.912594 795.476369,138.043218 785.976168,138.043218 Z M802.711138,178.309455 L822.296167,178.309455 C819.957656,193.655933 805.92659,203.959997 786.560796,203.959997 C762.444901,203.959997 747.975365,188.54044 747.975365,163.474525 C747.975365,138.481689 762.591058,122.258269 785.756933,122.258269 C808.557415,122.258269 822.953874,137.677826 822.953874,161.501407 L822.953874,168.00539 L768.948885,168.00539 L768.948885,169.320803 C768.948885,180.501809 776.037497,188.175048 786.926188,188.175048 C794.745585,188.175048 800.738019,184.301889 802.711138,178.309455 Z M839.615765,105.888692 L860.954677,105.888692 L860.954677,123.939074 L875.424214,123.939074 L875.424214,140.016337 L860.954677,140.016337 L860.954677,177.505591 C860.954677,183.498026 863.877816,186.348086 870.162565,186.348086 C872.062605,186.348086 874.035723,186.201929 875.351136,185.982694 L875.351136,201.694565 C873.158782,202.206114 869.504858,202.571506 865.193229,202.571506 C846.777455,202.571506 839.615765,196.432915 839.615765,181.159515 L839.615765,140.016337 L828.580916,140.016337 L828.580916,123.939074 L839.615765,123.939074 L839.615765,105.888692 Z M935.567794,204.106154 C904.874837,204.106154 885.6552,183.571104 885.6552,149.516538 C885.6552,115.53505 905.020994,95 935.567794,95 C960.926023,95 980.218739,111.077263 981.899543,134.681609 L960.414474,134.681609 C958.368277,121.74672 948.429605,113.269617 935.567794,113.269617 C918.905903,113.269617 908.163368,127.227605 908.163368,149.443459 C908.163368,171.951628 918.759746,185.836537 935.640873,185.836537 C948.721919,185.836537 958.149041,178.163298 960.487552,165.666879 L981.972622,165.666879 C979.487954,189.198146 961.437572,204.106154 935.567794,204.106154 Z M1029.69286,203.959997 C1006.01544,203.959997 990.888195,188.759676 990.888195,163.036055 C990.888195,137.677826 1006.23467,122.258269 1029.69286,122.258269 C1053.15105,122.258269 1068.49753,137.604747 1068.49753,163.036055 C1068.49753,188.832754 1053.37029,203.959997 1029.69286,203.959997 Z M1029.69286,187.663499 C1040.14308,187.663499 1046.79322,178.821004 1046.79322,163.109133 C1046.79322,147.543419 1040.07,138.554767 1029.69286,138.554767 C1019.31572,138.554767 1012.51942,147.543419 1012.51942,163.109133 C1012.51942,178.821004 1019.16956,187.663499 1029.69286,187.663499 Z M1079.4593,202.279192 L1079.4593,123.939074 L1100.06743,123.939074 L1100.06743,137.897061 L1100.5059,137.897061 C1104.67137,128.177625 1112.92924,122.477504 1124.98719,122.477504 C1142.37986,122.477504 1152.17238,133.439275 1152.17238,151.78197 L1152.17238,202.279192 L1130.83346,202.279192 L1130.83346,156.239757 C1130.83346,146.008771 1126.01028,140.162494 1116.437,140.162494 C1106.86373,140.162494 1100.79821,147.178027 1100.79821,157.335934 L1100.79821,202.279192 L1079.4593,202.279192 Z M1165.69189,202.279192 L1165.69189,123.939074 L1186.30002,123.939074 L1186.30002,137.897061 L1186.73849,137.897061 C1190.90396,128.177625 1199.16183,122.477504 1211.21978,122.477504 C1228.61245,122.477504 1238.40497,133.439275 1238.40497,151.78197 L1238.40497,202.279192 L1217.06606,202.279192 L1217.06606,156.239757 C1217.06606,146.008771 1212.24288,140.162494 1202.6696,140.162494 C1193.09632,140.162494 1187.03081,147.178027 1187.03081,157.335934 L1187.03081,202.279192 L1165.69189,202.279192 Z M1287.07523,138.043218 C1277.72119,138.043218 1270.99797,145.13183 1270.26718,154.924344 L1303.51789,154.924344 C1303.07941,144.912594 1296.57543,138.043218 1287.07523,138.043218 Z M1303.8102,178.309455 L1323.39523,178.309455 C1321.05672,193.655933 1307.02565,203.959997 1287.65986,203.959997 C1263.54396,203.959997 1249.07443,188.54044 1249.07443,163.474525 C1249.07443,138.481689 1263.69012,122.258269 1286.85599,122.258269 C1309.65648,122.258269 1324.05293,137.677826 1324.05293,161.501407 L1324.05293,168.00539 L1270.04795,168.00539 L1270.04795,169.320803 C1270.04795,180.501809 1277.13656,188.175048 1288.02525,188.175048 C1295.84465,188.175048 1301.83708,184.301889 1303.8102,178.309455 Z M1406.19313,153.097383 L1386.38887,153.097383 C1385.14653,144.839516 1379.66565,138.993238 1370.89623,138.993238 C1360.37293,138.993238 1353.79587,147.908811 1353.79587,163.036055 C1353.79587,178.455611 1360.37293,187.225028 1370.96931,187.225028 C1379.51949,187.225028 1385.07346,182.109535 1386.38887,173.559354 L1406.26621,173.559354 C1405.17004,192.048207 1391.3582,203.959997 1370.75008,203.959997 C1347.14573,203.959997 1332.16464,188.613519 1332.16464,163.036055 C1332.16464,137.897061 1347.14573,122.258269 1370.60392,122.258269 C1391.79668,122.258269 1405.24311,135.339315 1406.19313,153.097383 Z M1422.2704,105.888692 L1443.60931,105.888692 L1443.60931,123.939074 L1458.07885,123.939074 L1458.07885,140.016337 L1443.60931,140.016337 L1443.60931,177.505591 C1443.60931,183.498026 1446.53245,186.348086 1452.8172,186.348086 C1454.71724,186.348086 1456.69036,186.201929 1458.00577,185.982694 L1458.00577,201.694565 C1455.81341,202.206114 1452.15949,202.571506 1447.84786,202.571506 C1429.43209,202.571506 1422.2704,196.432915 1422.2704,181.159515 L1422.2704,140.016337 L1411.23555,140.016337 L1411.23555,123.939074 L1422.2704,123.939074 L1422.2704,105.888692 Z" id="WalletConnect" fill="#3999FB"></path>
            <path d="M79.4992542,46.5389641 C142.715504,-15.3550143 245.209294,-15.3550143 308.425541,46.5389641 L316.033719,53.9880033 C319.194531,57.0827021 319.194531,62.1002006 316.033719,65.1949006 L290.007661,90.6765804 C288.427255,92.2239311 285.86491,92.2239311 284.284504,90.6765804 L273.814748,80.4258162 C229.713513,37.2470301 158.211283,37.2470301 114.110047,80.4258162 L102.897805,91.4035389 C101.317397,92.9508883 98.755052,92.9508883 97.1746471,91.4035389 L71.1485898,65.9218591 C67.9877774,62.8271591 67.9877774,57.8096606 71.1485898,54.7149619 L79.4992542,46.5389641 Z M362.249885,99.2377722 L385.413126,121.916595 C388.573922,125.01128 388.573941,130.028748 385.413167,133.123453 L280.968512,235.385079 C277.807722,238.479801 272.683033,238.479836 269.522198,235.385159 C269.522185,235.385146 269.52217,235.385132 269.522157,235.385118 L195.393696,162.807065 C194.603493,162.03339 193.32232,162.03339 192.532117,162.807065 C192.532112,162.80707 192.532108,162.807076 192.532103,162.807079 L118.40522,235.385079 C115.24444,238.479809 110.119749,238.479861 106.958905,235.385192 C106.958887,235.385174 106.958867,235.385155 106.958847,235.385136 L2.51128675,133.12215 C-0.649524409,130.027451 -0.649524409,125.009953 2.51128675,121.915254 L25.6745697,99.2364692 C28.8353808,96.1417705 33.9600712,96.1417705 37.1208837,99.2364692 L111.250424,171.815537 C112.040627,172.589212 113.321798,172.589212 114.112002,171.815537 C114.112014,171.815525 114.112024,171.815514 114.112036,171.815505 L188.237861,99.2364692 C191.398601,96.1416993 196.523291,96.1415832 199.684176,99.2362107 C199.68422,99.2362542 199.684263,99.2362977 199.684307,99.2363413 L273.813749,171.815505 C274.603952,172.589179 275.885125,172.589179 276.675327,171.815505 L350.803571,99.2377722 C353.964384,96.1430722 359.089073,96.1430722 362.249885,99.2377722 Z" id="WalletConnect" fill="#3B99FC" fill-rule="nonzero"></path>
        </g>
    </g>
</svg>
